X: 1194
T: My Maryanne
M:C|
L:1/8
R:Reel
B:O'Neill's 1194
N:Collected by McFadden
Z:Transcribed by Trish O'Nei
K:C
d|cded cAGB|Adde dcAB|cded cAGE|FAGE FGAB|
cded cAGB|Adde dcAB|cded cAGE|F2(GE) ({F}ED)"end"D2||
egge T(cBc).d|eaag aged|egge dfed|cAGAc2(cd)|
egge T(cBc).d|eaab agef|gefd (3efg ed|cAGA c1||


